packages/wallets/src/public/images/ic-account-deriv-nakala.svg

<svg width="48" height="48" viewBox="0 0 48 48" fill="none" xmlns="http://www.w3.org/2000/svg">
<path d="M0 9C0 4.02944 4.02944 0 9 0H39C43.9706 0 48 4.02944 48 9V39C48 43.9706 43.9706 48 39 48H9C4.02944 48 0 43.9706 0 39V9Z" fill="#FF444F"/>
<path d="M9 0C4.02944 0 0 4.02944 0 9V9.26143L44.8717 2.17896C43.2955 0.820999 41.2436 0 39 0H9Z" fill="#E12E3A"/>
<path d="M45.7979 3.10162L37.5666 47.9999L39 48C43.9706 48 48 43.9706 48 39V9C48 6.74364 47.1697 4.68122 45.7979 3.10162Z" fill="#E12E3A"/>
<path d="M14.5296 28.2705C14.6726 28.2835 14.8351 28.2965 15.0171 28.3095C15.2121 28.3095 15.4396 28.3095 15.6996 28.3095C17.2206 28.3095 18.3451 27.926 19.0731 27.159C19.8141 26.392 20.1846 25.3325 20.1846 23.9805C20.1846 22.5635 19.8336 21.491 19.1316 20.763C18.4296 20.035 17.3181 19.671 15.7971 19.671C15.5891 19.671 15.3746 19.6775 15.1536 19.6905C14.9326 19.6905 14.7246 19.7035 14.5296 19.7295V28.2705ZM23.3241 23.9805C23.3241 25.1505 23.1421 26.171 22.7781 27.042C22.4141 27.913 21.8941 28.6345 21.2181 29.2065C20.5551 29.7785 19.7426 30.2075 18.7806 30.4935C17.8186 30.7795 16.7396 30.9225 15.5436 30.9225C14.9976 30.9225 14.3606 30.8965 13.6326 30.8445C12.9046 30.8055 12.1896 30.7145 11.4876 30.5715V17.409C12.1896 17.279 12.9176 17.1945 13.6716 17.1555C14.4386 17.1035 15.0951 17.0775 15.6411 17.0775C16.7981 17.0775 17.8446 17.2075 18.7806 17.4675C19.7296 17.7275 20.5421 18.137 21.2181 18.696C21.8941 19.255 22.4141 19.97 22.7781 20.841C23.1421 21.712 23.3241 22.7585 23.3241 23.9805Z" fill="white"/>
<path d="M33.9576 30.747C33.0866 29.2 32.1441 27.6725 31.1301 26.1645C30.1161 24.6565 29.0371 23.233 27.8931 21.894V30.747H24.8901V17.2335H27.3666C27.7956 17.6625 28.2701 18.189 28.7901 18.813C29.3101 19.437 29.8366 20.1065 30.3696 20.8215C30.9156 21.5235 31.4551 22.258 31.9881 23.025C32.5211 23.779 33.0216 24.507 33.4896 25.209V17.2335H36.5121V30.747H33.9576Z" fill="white"/>
</svg>

<svg xmlns="http://www.w3.org/2000/svg" width="48" height="48" fill="none"><path fill="#FF444F" d="M0 9a9 9 0 0 1 9-9h30a9 9 0 0 1 9 9v30a9 9 0 0 1-9 9H9a9 9 0 0 1-9-9z"/><path fill="#E12E3A" d="M9 0a9 9 0 0 0-9 9v.261L44.872 2.18A8.97 8.97 0 0 0 39 0zM45.798 3.102 37.567 48H39a9 9 0 0 0 9-9V9c0-2.256-.83-4.319-2.202-5.898"/><path fill="#fff" d="M14.53 28.27q.214.02.487.04h.683q2.28 0 3.373-1.151 1.112-1.15 1.112-3.178 0-2.126-1.053-3.218t-3.335-1.092q-.312 0-.643.02-.332 0-.624.039zm8.794-4.29q0 1.755-.546 3.062a5.6 5.6 0 0 1-1.56 2.164q-.994.86-2.437 1.288t-3.237.428q-.819 0-1.911-.078a15 15 0 0 1-2.145-.273V17.41q1.053-.195 2.184-.253a30 30 0 0 1 1.97-.078q1.734 0 3.139.39 1.423.39 2.437 1.228t1.56 2.145.546 3.14M33.958 30.747a68 68 0 0 0-2.828-4.582 47 47 0 0 0-3.237-4.271v8.853H24.89V17.234h2.477q.643.642 1.423 1.579t1.58 2.009a51 51 0 0 1 1.618 2.203 97 97 0 0 1 1.502 2.184v-7.975h3.022v13.513z"/></svg>
